images/meet.svg

<svg width="90" height="20" viewBox="0 0 90 20" fill="none" xmlns="http://www.w3.org/2000/svg">
<path id="Combined Shape" fill-rule="evenodd" clip-rule="evenodd" d="M20 5C20 7.76142 17.7614 10 15 10C12.2386 10 10 7.76142 10 5C10 2.23858 12.2386 0 15 0C17.7614 0 20 2.23858 20 5ZM10 15C10 17.7614 7.76142 20 5 20C2.23858 20 0 17.7614 0 15C0 12.2386 2.23858 10 5 10C7.76142 10 10 12.2386 10 15ZM81.6212 18.502C81.9675 18.502 82.3965 18.4673 82.9083 18.3979C83.4201 18.3285 83.8416 18.2398 84.1728 18.1318V15.1006C83.8717 15.1932 83.5932 15.2587 83.3373 15.2973C83.0814 15.3358 82.8105 15.3551 82.5244 15.3551C81.9373 15.3551 81.5271 15.2433 81.2938 15.0196C81.0605 14.7959 80.9438 14.4142 80.9438 13.8742V9.22334H84.2857V6.0996H80.9438V2.14286L77.2858 2.95272V6.0996H74.8697V9.22334H77.2858V14.6147C77.2858 15.895 77.6508 16.863 78.3809 17.5186C79.111 18.1742 80.1911 18.502 81.6212 18.502ZM31.5152 18.34V9.96378C31.741 9.67069 32.0157 9.45087 32.3394 9.30433C32.663 9.15778 33.0281 9.08451 33.4345 9.08451C34.0216 9.08451 34.492 9.2889 34.8458 9.69769C35.1996 10.1065 35.3764 10.6425 35.3764 11.3058V18.34H39.0345V10.7968C39.0345 10.6579 39.0307 10.523 39.0232 10.3919C39.0157 10.2607 39.0044 10.1335 38.9893 10.0101C39.2302 9.71697 39.5162 9.48944 39.8474 9.32747C40.1786 9.16549 40.5474 9.08451 40.9538 9.08451C41.5409 9.08451 42.0113 9.2889 42.3651 9.69769C42.7188 10.1065 42.8957 10.6425 42.8957 11.3058V18.34H46.5538V10.7968C46.5538 9.36217 46.121 8.18209 45.2554 7.25654C44.3898 6.33099 43.2796 5.86821 41.9248 5.86821C41.142 5.86821 40.4194 6.01476 39.757 6.30785C39.0947 6.60094 38.5226 7.01744 38.0409 7.55734C37.6345 7.03286 37.1264 6.62022 36.5168 6.31942C35.9071 6.01861 35.2334 5.86821 34.4958 5.86821C33.9388 5.86821 33.4082 5.95305 32.9039 6.12274C32.3996 6.29242 31.9367 6.54695 31.5152 6.88632V6.0996H27.8571V18.34H31.5152ZM54.6827 18.5714C55.6763 18.5714 56.5682 18.4249 57.3585 18.1318C58.1488 17.8387 58.9203 17.3682 59.673 16.7203L57.2569 14.5221C56.9709 14.8152 56.6246 15.0428 56.2182 15.2047C55.8118 15.3667 55.3601 15.4477 54.8634 15.4477C54.1709 15.4477 53.5688 15.2664 53.0569 14.9039C52.5451 14.5414 52.1688 14.0748 51.9279 13.504H60.4407V12.5785C60.4407 11.6221 60.2902 10.7312 59.9891 9.90594C59.6881 9.08065 59.2703 8.37492 58.7359 7.78873C58.2015 7.20255 57.5655 6.73977 56.8279 6.4004C56.0902 6.06103 55.2849 5.89135 54.4118 5.89135C53.5387 5.89135 52.722 6.05332 51.9618 6.37726C51.2016 6.70121 50.543 7.14856 49.986 7.71932C49.429 8.29007 48.9887 8.96496 48.665 9.74396C48.3414 10.523 48.1796 11.3521 48.1796 12.2314C48.1796 13.1107 48.3489 13.9398 48.6876 14.7188C49.0263 15.4978 49.4855 16.1727 50.065 16.7435C50.6446 17.3142 51.3333 17.7616 52.1311 18.0855C52.929 18.4095 53.7795 18.5714 54.6827 18.5714ZM51.8602 10.8893H56.8505C56.6548 10.3032 56.3349 9.83266 55.8908 9.47787C55.4467 9.12307 54.9311 8.94567 54.344 8.94567C53.7419 8.94567 53.2225 9.11536 52.786 9.45473C52.3494 9.7941 52.0408 10.2723 51.8602 10.8893ZM68.1181 18.5714C69.1116 18.5714 70.0036 18.4249 70.7939 18.1318C71.5842 17.8387 72.3557 17.3682 73.1084 16.7203L70.6923 14.5221C70.4063 14.8152 70.06 15.0428 69.6536 15.2047C69.2471 15.3667 68.7955 15.4477 68.2988 15.4477C67.6063 15.4477 67.0041 15.2664 66.4923 14.9039C65.9805 14.5414 65.6041 14.0748 65.3633 13.504H73.8761V12.5785C73.8761 11.6221 73.7256 10.7312 73.4245 9.90594C73.1234 9.08065 72.7057 8.37492 72.1713 7.78873C71.6369 7.20255 71.0009 6.73977 70.2632 6.4004C69.5256 6.06103 68.7203 5.89135 67.8471 5.89135C66.974 5.89135 66.1574 6.05332 65.3972 6.37726C64.6369 6.70121 63.9784 7.14856 63.4214 7.71932C62.8644 8.29007 62.4241 8.96496 62.1004 9.74396C61.7768 10.523 61.6149 11.3521 61.6149 12.2314C61.6149 13.1107 61.7843 13.9398 62.123 14.7188C62.4617 15.4978 62.9208 16.1727 63.5004 16.7435C64.08 17.3142 64.7687 17.7616 65.5665 18.0855C66.3644 18.4095 67.2149 18.5714 68.1181 18.5714ZM65.2955 10.8893H70.2858C70.0901 10.3032 69.7702 9.83266 69.3262 9.47787C68.8821 9.12307 68.3665 8.94567 67.7794 8.94567C67.1773 8.94567 66.6579 9.11536 66.2213 9.45473C65.7848 9.7941 65.4762 10.2723 65.2955 10.8893ZM87.6629 5.27654C88.1256 5.27654 88.5162 5.12145 88.8348 4.81127C89.1534 4.50109 89.3127 4.11009 89.3127 3.63827C89.3127 3.17519 89.1534 2.78637 88.8348 2.47182C88.5162 2.15727 88.1256 2 87.6629 2C87.2003 2 86.8075 2.15727 86.4845 2.47182C86.1615 2.78637 86 3.17519 86 3.63827C86 4.11009 86.1615 4.50109 86.4845 4.81127C86.8075 5.12145 87.2003 5.27654 87.6629 5.27654Z" fill="#ADADAD"/>
</svg>

<svg xmlns="http://www.w3.org/2000/svg" width="90" height="20" fill="none"><path fill="#ADADAD" fill-rule="evenodd" d="M20 5a5 5 0 1 1-10 0 5 5 0 0 1 10 0ZM10 15a5 5 0 1 1-10 0 5 5 0 0 1 10 0Zm71.621 3.502c.347 0 .776-.035 1.287-.104.512-.07.934-.158 1.265-.266V15.1c-.301.092-.58.158-.836.196a5.464 5.464 0 0 1-.813.058c-.587 0-.997-.112-1.23-.335-.233-.224-.35-.606-.35-1.146v-4.65h3.342V6.1h-3.342V2.143l-3.658.81V6.1H74.87v3.123h2.416v5.392c0 1.28.365 2.248 1.095 2.904.73.655 1.81.983 3.24.983Zm-50.106-.162V9.964c.226-.293.5-.513.824-.66.324-.146.69-.22 1.096-.22.587 0 1.057.205 1.41.614.355.409.531.944.531 1.608v7.034h3.659v-7.543a7.09 7.09 0 0 0-.046-.787c.241-.293.527-.52.858-.683.332-.162.7-.242 1.107-.242.587 0 1.057.204 1.411.613.354.409.53.944.53 1.608v7.034h3.659v-7.543c0-1.435-.433-2.615-1.299-3.54-.865-.926-1.975-1.389-3.33-1.389-.783 0-1.506.147-2.168.44a4.969 4.969 0 0 0-1.716 1.25 4.315 4.315 0 0 0-1.524-1.239 4.505 4.505 0 0 0-2.021-.45c-.557 0-1.088.084-1.592.254-.504.17-.967.424-1.389.763V6.1h-3.658v12.24h3.658Zm23.168.231c.993 0 1.885-.146 2.675-.44.79-.292 1.562-.763 2.315-1.41l-2.416-2.199c-.286.293-.632.52-1.039.683a3.63 3.63 0 0 1-1.355.243c-.692 0-1.294-.182-1.806-.544a3.22 3.22 0 0 1-1.13-1.4h8.514v-.925c0-.957-.15-1.848-.452-2.673-.3-.825-.719-1.531-1.253-2.117A5.875 5.875 0 0 0 56.828 6.4a5.71 5.71 0 0 0-2.416-.509c-.873 0-1.69.162-2.45.486a6.033 6.033 0 0 0-1.976 1.342 6.357 6.357 0 0 0-1.321 2.025 6.42 6.42 0 0 0-.485 2.487c0 .88.169 1.709.508 2.488a6.38 6.38 0 0 0 1.377 2.025 6.27 6.27 0 0 0 2.066 1.341 6.716 6.716 0 0 0 2.552.486ZM51.86 10.89h4.99c-.195-.586-.515-1.056-.96-1.411a2.406 2.406 0 0 0-1.546-.532c-.602 0-1.122.17-1.558.509-.437.34-.745.817-.926 1.434Zm16.258 7.682c.994 0 1.886-.146 2.676-.44.79-.292 1.562-.763 2.314-1.41l-2.416-2.199c-.286.293-.632.52-1.038.683a3.63 3.63 0 0 1-1.355.243c-.693 0-1.295-.182-1.807-.544a3.22 3.22 0 0 1-1.129-1.4h8.513v-.925c0-.957-.15-1.848-.452-2.673-.3-.825-.718-1.531-1.253-2.117A5.875 5.875 0 0 0 70.263 6.4a5.71 5.71 0 0 0-2.416-.509c-.873 0-1.69.162-2.45.486a6.032 6.032 0 0 0-1.976 1.342 6.357 6.357 0 0 0-1.32 2.025 6.42 6.42 0 0 0-.486 2.487c0 .88.17 1.709.508 2.488a6.378 6.378 0 0 0 1.377 2.025 6.27 6.27 0 0 0 2.067 1.341 6.716 6.716 0 0 0 2.551.486Zm-2.822-7.682h4.99c-.196-.586-.516-1.056-.96-1.411a2.406 2.406 0 0 0-1.547-.532c-.602 0-1.121.17-1.558.509-.436.34-.745.817-.925 1.434Zm22.367-5.612c.463 0 .853-.156 1.172-.466.318-.31.478-.7.478-1.173 0-.463-.16-.852-.478-1.166A1.604 1.604 0 0 0 87.663 2c-.463 0-.855.157-1.178.472A1.563 1.563 0 0 0 86 3.638c0 .472.162.863.484 1.173.324.31.716.466 1.179.466Z" clip-rule="evenodd"/></svg>
